app/img/product/ic_search.svg

<svg width="35" height="29" viewBox="0 0 35 29" fill="none" xmlns="http://www.w3.org/2000/svg">
    <path fill-rule="evenodd" clip-rule="evenodd"
          d="M21.9403 21.2713L15.2767 27.8788C14.7584 28.3928 13.9198 28.3944 13.3955 27.8745C12.8748 27.3582 12.8761 26.5198 13.3911 26.0091L20.0557 19.4005C19.126 18.1044 18.5793 16.5194 18.5793 14.8077C18.5793 10.4266 22.161 6.875 26.5793 6.875C30.9976 6.875 34.5793 10.4266 34.5793 14.8077C34.5793 19.1889 30.9976 22.7405 26.5793 22.7405C24.8499 22.7405 23.2487 22.1964 21.9403 21.2713ZM22.9769 18.7075C23.9258 19.5699 25.1906 20.0962 26.5793 20.0962C29.5248 20.0962 31.9127 17.7285 31.9127 14.8077C31.9127 11.887 29.5248 9.51925 26.5793 9.51925C23.6338 9.51925 21.246 11.887 21.246 14.8077C21.246 16.1816 21.7743 17.4331 22.6405 18.3734C22.7047 18.4179 22.766 18.4687 22.8236 18.5257C22.881 18.5827 22.9321 18.6436 22.9769 18.7075Z"
          fill="#022AF0"/>
    <path d="M15.51 12.125H3" stroke="#7CEA57" stroke-width="5" stroke-linecap="round"/>
    <path d="M30.0076 3H3.00439" stroke="#7CEA57" stroke-width="5" stroke-linecap="round"/>
    <path d="M11.0049 20.875L3.00488 20.875" stroke="#7CEA57" stroke-width="5" stroke-linecap="round"/>
</svg>

<svg width="35" height="29" fill="none" xmlns="http://www.w3.org/2000/svg"><path fill-rule="evenodd" clip-rule="evenodd" d="m21.94 21.271-6.663 6.608a1.335 1.335 0 0 1-1.881-.005 1.314 1.314 0 0 1-.005-1.865l6.665-6.608a7.851 7.851 0 0 1-1.477-4.593c0-4.381 3.582-7.933 8-7.933 4.419 0 8 3.552 8 7.933 0 4.38-3.581 7.933-8 7.933-1.73 0-3.33-.545-4.639-1.47Zm1.037-2.564a5.339 5.339 0 0 0 3.602 1.39c2.946 0 5.334-2.369 5.334-5.29 0-2.92-2.388-5.288-5.334-5.288-2.945 0-5.333 2.368-5.333 5.289 0 1.374.528 2.625 1.395 3.565a1.37 1.37 0 0 1 .336.334Z" fill="#022AF0"/><path d="M15.51 12.125H3M30.008 3H3.004M11.005 20.875h-8" stroke="#7CEA57" stroke-width="5" stroke-linecap="round"/></svg>
